!!!COM: Bach, Johann Sebastian
!!!OPR: Joh. Seb. Bachs vierstimmige Choralgesänge
!!!XEN: Four-part Chorales
!!!OTL: 37. Das walt' Gott Vater und Gott Sohn
!!!SCT: BWV 290
!!!SCA: Thematisch-systematisches Verzeichnis der musikalischen Werke Johann Sebastian Bach: Bach-Werke-Verzeichnis (Schmieder)
!!!YOR: Bach Gesellschaft Edition xxxix
!!!ENC: Steven Rasmussen
!!!CDT: 1685/3//-1750/7/28/
!!!OCY: Deutschland
!!!YEC: Copyright (c) 1994, 2000 Center for Computer Assisted Research in the Humanities
!!!YEM: Rights to all derivative editions reserved
!!!YEN: United States of America
**kern	**kern	**kern	**kern	**silbe
*I:[BASSO]	*I:[TENORE]	*I:[ALTO]	*I:[SOPRANO]	*I:[SOPRANO]
*clefF4	*clefGv2	*clefG2	*clefG2	*
*k[b-]	*k[b-]	*k[b-]	*k[b-]	*
*F:	*F:	*F:	*F:	*
*M4/4	*M4/4	*M4/4	*M4/4	*
4F	4A	4c	4f	Das
=1	=1	=1	=1	=1
4F	4c	4f	4a	walt'
8AAL	4c	4f	4cc	Gott
8BB-J	.	.	.	.
4C	4G	4e	4cc	Va-
4C#	4A	4e	4a	-ter
=2	=2	=2	=2	=2
4D	4A	8eL	4f	und
.	.	8dJ	.	.
4E	4G	4c	4g	Gott
4F;	4F;	4c;	4a;	Sohn,
4F	4A	4c	4f	Gott
=3	=3	=3	=3	=3
4.F	4A	4f	4cc	heil'-
.	4c	4g	4cc	-ger
8E	.	.	.	.
4D	4f	8aL	4dd	Geist
.	.	8bnJ	.	.
8AL	4e	4cc	4ee	in's
8GJ	.	.	.	.
=4	=4	=4	=4	=4
4F	4a	4.cc	8ffL	Him-
.	.	.	8eeJ	.
4G	8dL	.	4dd	-mels
.	16gL	8bn	.	.
.	16fJJ	.	.	.
4C;	4e;	4g;	4cc;	Thron.
4E	4c	4g	4cc	Man
=5	=5	=5	=5	=5
4F	4c	8gL	4a	dankt
.	.	16fL	.	.
.	.	16eJJ	.	.
8AAL	4c	4f	4cc	dir,
8FFJ	.	.	.	.
4BB-	8cL	4f	4dd	eh'
.	8B-J	.	.	.
4F	8B-L	4f	4cc	die
.	8AJ	.	.	.
=6	=6	=6	=6	=6
8FL	4G	8gL	4b-	Sonn'
8EJ	.	8cJ	.	.
4F	8.AL	8cL	4a	auf-
.	.	8fJ	.	.
.	16B-Jk	.	.	.
4C;	4c;	(8fL	4g;	-geht;
.	.	8e;J)	.	.
4E	4c	4g	4cc	wann
=7	=7	=7	=7	=7
4F	4c	4f	8aL	's\0+Licht
.	.	.	8b-J	.
4AA	4c	4f	4cc	an-
4BB-	4d	4f	4b-	-bricht,
4C	8cL	4e	8aL	man
.	8B-J	.	8gJ	.
=8	=8	=8	=8	=8
4D	8AL	(16dLL	4f	vor
.	.	16eJJ	.	.
.	16GL	4f)	.	.
.	16FJJ	.	.	.
4C	8.cL	.	4g	dir
.	.	8e	.	.
.	16B-Jk	.	.	.
4F;	4A;	4c;	4f;	steht.
==|!	==|!	==|!	==|!	==|!
*-	*-	*-	*-	*-
!!!RWG: Key is interpreted using the Humdrum key tool.
!!!END: 1994/05/16
!!!EMD: Converted from MuseData to Humdrum Dec 19, 2000, by Andreas Kornstaedt using muse2kern.
!!!EED: Craig Stuart Sapp
!!!EEV: 2024/03/31
!!!ONB: Some non-unicode characters
!!!filter-keyboard: satb2gs
